dist/img/svg/video.svg

<svg width="35" height="35" viewBox="0 0 35 35" fill="none" xmlns="http://www.w3.org/2000/svg">
<path d="M13.1253 32.0834H21.8753C29.167 32.0834 32.0837 29.1667 32.0837 21.875V13.125C32.0837 5.83335 29.167 2.91669 21.8753 2.91669H13.1253C5.83366 2.91669 2.91699 5.83335 2.91699 13.125V21.875C2.91699 29.1667 5.83366 32.0834 13.1253 32.0834Z" stroke="currentColor" stroke-width="1.5" stroke-linecap="round" stroke-linejoin="round"/>
<path d="M13.2705 17.5V15.3417C13.2705 12.5562 15.2393 11.4333 17.6455 12.8187L19.5122 13.8979L21.3788 14.9771C23.7851 16.3625 23.7851 18.6375 21.3788 20.0229L19.5122 21.1021L17.6455 22.1812C15.2393 23.5667 13.2705 22.4292 13.2705 19.6583V17.5Z" stroke="currentColor" stroke-width="1.5" stroke-miterlimit="10" stroke-linecap="round" stroke-linejoin="round"/>
</svg>

<svg width="35" height="35" viewBox="0 0 35 35" fill="none" xmlns="http://www.w3.org/2000/svg"><path d="M13.125 32.083h8.75c7.292 0 10.209-2.916 10.209-10.208v-8.75c0-7.292-2.917-10.208-10.209-10.208h-8.75c-7.291 0-10.208 2.916-10.208 10.208v8.75c0 7.292 2.917 10.208 10.208 10.208z" stroke="currentColor" stroke-width="1.5" stroke-linecap="round" stroke-linejoin="round"/><path d="M13.27 17.5v-2.158c0-2.786 1.97-3.909 4.375-2.523l1.867 1.079 1.867 1.08c2.406 1.385 2.406 3.66 0 5.045l-1.867 1.08-1.867 1.078c-2.406 1.386-4.374.248-4.374-2.523V17.5z" stroke="currentColor" stroke-width="1.5" stroke-miterlimit="10" stroke-linecap="round" stroke-linejoin="round"/></svg>
